hero/solid/photo.svg

<svg width="24" height="24" viewBox="0 0 24 24" fill="none" xmlns="http://www.w3.org/2000/svg">
<path fill-rule="evenodd" clip-rule="evenodd" d="M1.5 6C1.5 4.75736 2.50736 3.75 3.75 3.75H20.25C21.4926 3.75 22.5 4.75736 22.5 6V18C22.5 19.2426 21.4926 20.25 20.25 20.25H3.75C2.50736 20.25 1.5 19.2426 1.5 18V6ZM3 16.0607V18C3 18.4142 3.33579 18.75 3.75 18.75H20.25C20.6642 18.75 21 18.4142 21 18V16.0607L18.3107 13.3713C17.7249 12.7855 16.7751 12.7855 16.1893 13.3713L15.3107 14.25L16.2803 15.2197C16.5732 15.5126 16.5732 15.9874 16.2803 16.2803C15.9874 16.5732 15.5126 16.5732 15.2197 16.2803L10.0607 11.1213C9.47487 10.5355 8.52513 10.5355 7.93934 11.1213L3 16.0607ZM13.125 8.25C13.125 7.62868 13.6287 7.125 14.25 7.125C14.8713 7.125 15.375 7.62868 15.375 8.25C15.375 8.87132 14.8713 9.375 14.25 9.375C13.6287 9.375 13.125 8.87132 13.125 8.25Z" fill="#0F172A"/>
</svg>

<svg viewBox="0 0 24 24" xmlns="http://www.w3.org/2000/svg"><path fill-rule="evenodd" d="M1.5 6v0c0-1.25 1-2.25 2.25-2.25h16.5v0c1.24 0 2.25 1 2.25 2.25v12 0c0 1.24-1.01 2.25-2.25 2.25H3.75v0C2.5 20.25 1.5 19.24 1.5 18V6ZM3 16.06V18c0 .41.33.75.75.75h16.5v0c.41 0 .75-.34.75-.75v-1.94l-2.69-2.689v-.001c-.59-.59-1.54-.59-2.12 0l-.88.87 .97.97v0c.3.28.31.75.03 1.06 -.29.3-.76.31-1.06.03 -.02-.02-.03-.03-.04-.04l-5.16-5.16v0c-.59-.59-1.54-.59-2.12-.001l-4.94 4.94Zm10.125-7.81v0c0-.63.5-1.125 1.125-1.125 .62 0 1.125.5 1.125 1.125v0c0 .62-.51 1.125-1.125 1.125 -.63 0-1.125-.51-1.125-1.125Z"/></svg>
